X: 1
T: G\aangl\aat efter Ryssmo Ante
O: And. Rudin, Ryssmon, St\"ode
B: Svenska Folkl\aatar f\"or tv\aa fioler
Z: 2006 John Chambers <jc@trillian.mit.edu>
M: 2/4
L: 1/16
K: D
A2 \
| A2[d2F2] [d2F2][d2F2] | d2ef Tf2ed | c2A2 A2A2 | [A4A4] A2A2 \
| A4 A2A2 | A2c2 e2e2 | e2fg Tf2ec | e2d2 d2d2 | d4 d2d2 | d4 z2 :|
|: fg \
| a2a2 Tf2df | a2a2 Tf2df | a2a2 f2ed | c2A2 A2A2 \
| [A4A4] A2A2 | A2c2 e2e2 | e2fg Tf2ec | e2d2 d2d2 | d4 d2d2 | d4 z2 :|
